X:985
T:Wat Ye Wha I Met Yestreen
S:LP-Dave Swarbrick, Smiddyburn (1981)
N:Transposed from Bdor for comparison
Z:Nigel Gatherer
L:1/8
M:4/4
K:Ador
A2 BA Bd e2 | dBgB B>AGE | G>AB>A GAB<d | D>D EG BA A2 :|
a2 ag a/b/c'/b/ a2 | g>a g/a/b/a/ g/a/g/e/ dg | e2 dB e/d/e/f/ g<G | D>D EG BA A2 :|
<end>
<start>
